Newaita-dark/actions/symbolic/window-close-symbolic.svg

<svg height="16" viewBox="0 0 16 16" width="16" xmlns="http://www.w3.org/2000/svg"><path d="m11.679688 4.300781c-.394532-.382812-1.019532-.371093-1.402344.019531l-2.339844 2.339844-2.339844-2.339844c-.246094-.253906-.617187-.359374-.960937-.265624-.347657.089843-.617188.359374-.707031.707031-.09375.34375.011718.714843.265624.960937l2.339844 2.339844-2.339844 2.339844c-.253906.25-.359374.617187-.265624.964844.089843.34375.359374.617187.707031.707031.34375.089843.714843-.011719.960937-.269531l2.339844-2.339844 2.339844 2.339844c.25.257812.617187.359374.964844.269531.34375-.089844.617187-.363281.707031-.707031.089843-.347657-.011719-.714844-.269531-.964844l-2.339844-2.339844 2.339844-2.339844c.191406-.183594.300781-.441406.300781-.710937 0-.265625-.109375-.523438-.300781-.710938zm0 0" fill="#e0e0e0"/></svg>

<?xml version="1.0" encoding="UTF-8"?>
<svg xmlns="http://www.w3.org/2000/svg" xmlns:xlink="http://www.w3.org/1999/xlink" width="16px" height="16px" viewBox="0 0 16 16" version="1.1">
<g id="surface1">
<path style=" stroke:none;fill-rule:nonzero;fill:rgb(87.843138%,87.843138%,87.843138%);fill-opacity:1;" d="M 11.679688 4.300781 C 11.285156 3.917969 10.660156 3.929688 10.277344 4.320312 L 7.9375 6.660156 L 5.597656 4.320312 C 5.351562 4.066406 4.980469 3.960938 4.636719 4.054688 C 4.289062 4.144531 4.019531 4.414062 3.929688 4.761719 C 3.835938 5.105469 3.941406 5.476562 4.195312 5.722656 L 6.535156 8.0625 L 4.195312 10.402344 C 3.941406 10.652344 3.835938 11.019531 3.929688 11.367188 C 4.019531 11.710938 4.289062 11.984375 4.636719 12.074219 C 4.980469 12.164062 5.351562 12.0625 5.597656 11.804688 L 7.9375 9.464844 L 10.277344 11.804688 C 10.527344 12.0625 10.894531 12.164062 11.242188 12.074219 C 11.585938 11.984375 11.859375 11.710938 11.949219 11.367188 C 12.039062 11.019531 11.9375 10.652344 11.679688 10.402344 L 9.339844 8.0625 L 11.679688 5.722656 C 11.871094 5.539062 11.980469 5.28125 11.980469 5.011719 C 11.980469 4.746094 11.871094 4.488281 11.679688 4.300781 Z M 11.679688 4.300781 "/>
</g>
</svg>
